svg/u1f416.svg

<svg viewBox="0 0 128 128" xmlns="http://www.w3.org/2000/svg">
  <defs/>
  <path d="M70.52,93.98 C70.52,95.48 70.96,99.24 70.96,100.74 C70.96,102.24 71.9,105.24 75.98,105.67 C82.29,106.32 83.84,103.03 84.57,99.19 C85.56,93.98 84.98,87.79 84.98,87.79 L70.52,93.98 Z" fill="#FFA8A7"/>
  <path d="M119.79,19.65 C121.57,19.27 123.92,19.84 124.01,18.05 C124.12,15.89 121.38,14.48 118.1,15.42 C114.83,16.35 113.78,19.17 113.78,19.17 C113.78,19.17 110.07,17.44 106.83,20.01 C103.17,22.92 102.89,29.02 102.89,29.02 L108.05,33.99 C108.05,33.99 108.18,28.23 108.99,26.11 C110.02,23.39 111.81,23.86 111.81,23.86 C111.81,23.86 109.84,29.3 112.56,32.59 C115.82,36.53 123.07,34.84 122.04,28.18 C121.43,24.22 117.63,21.8 117.63,21.8 C117.63,21.8 118.45,19.93 119.79,19.65 Z M117.07,30.82 C114.08,31.16 115.01,25.94 115.57,24.44 C118.01,25.47 119.51,30.53 117.07,30.82 Z" fill="#FFD2B1"/>
  <path d="M45.97,24.86 C64.16,17.46 100.02,15.78 112.14,35.14 C124.39,54.71 115.94,67.24 114.53,70.76 C112.51,75.81 110.73,82.3 110.31,85.68 C109.81,89.65 109.18,99.9 108.76,102.01 C108.34,104.12 104.68,107.22 100.88,106.94 C97.08,106.66 93.98,104.27 93.7,102.01 C93.42,99.76 94.54,94.13 91.87,92.16 C89.2,90.19 81.17,91.46 76.38,93.99 C71.59,96.52 48.98,108.31 23.73,97.23 C-1.61,86.1 4.3,62.02 10.5,54.98 C16.7,47.94 15.99,46.53 15.99,46.53 C15.99,46.53 9.8,48.08 12.19,43.15 C14.58,38.22 20.78,30.06 21.9,29.35 C23.03,28.65 26.69,27.52 28.66,28.79 C30.63,30.06 30.63,31.89 30.63,31.89 C30.63,31.89 33.87,29.78 45.97,24.86 Z" fill="#FFD2B1"/>
  <path d="M20.77,93.84 C20.77,93.84 21.05,103.69 21.19,106.09 C21.33,108.49 21.66,112.38 22.03,114.26 C22.45,116.37 24.15,117.58 27.52,117.78 C32.17,118.06 34.42,116.09 34.84,114.4 C35.26,112.71 35.68,97.51 35.68,97.51 L20.77,93.84 Z" fill="#FFD2B1"/>
  <path d="M47.1,98.2 C47.1,98.2 47.06,103.13 47.24,108.05 C47.38,111.85 47.38,116.22 47.8,117.34 C48.5,119.21 51.88,120.3 54.84,120.44 C58.08,120.59 60.26,118.96 61.6,117.62 C62.3,116.92 62.3,113.4 62.44,108.33 C62.52,105.37 62.72,96.65 62.72,96.65 L47.1,98.2 Z" fill="#FFD2B1"/>
  <path d="M62.82,43.58 C62.07,41.95 58.24,43.58 57.28,46.02 C56.06,49.12 57.28,52.12 59.06,55.5 C60.28,57.81 65.82,64.98 72.2,63.48 C79.62,61.73 77.55,50.15 77.27,48.84 C76.99,47.53 76.1,45.78 74.55,46.02 C72.77,46.3 73.62,49.26 73.71,51.46 C73.8,53.9 73.9,58.03 70.99,58.69 C67.88,59.39 65.68,57.35 63.95,54.56 C62.26,51.84 60.29,49.77 60.85,47.24 C61.2,45.68 63.38,44.8 62.82,43.58 Z" fill="#E6508F"/>
  <path d="M24.81,40.48 C23.39,39.93 21.71,42.08 20.12,43.39 C18.53,44.7 15.62,46.39 14.49,44.99 C13.32,43.52 17.01,39.67 19.18,35.98 C21.06,32.79 22.82,29.13 25.28,28.94 C28.94,28.66 26.09,27.02 23.4,27.53 C21.43,27.91 18.71,29.69 17.21,32.69 C15.71,35.69 8.57,43.3 10.92,46.77 C13.62,50.77 19.55,48.93 22.18,46.77 C24.81,44.61 26.5,41.14 24.81,40.48 Z" fill="#E6508F"/>
  <path d="M29.5,69.2 C24.34,68.26 16.12,69.7 15.52,75.49 C15.05,79.99 17.96,85.44 27.44,87.5 C36.92,89.56 41.61,86 42.08,80.93 C42.55,75.87 37.2,70.61 29.5,69.2 Z" fill="#FF7D86"/>
  <path d="M26.22,77.27 C26.42,79.54 25.8,81.18 24.44,81.31 C23.08,81.43 21.17,79.83 20.97,77.56 C20.77,75.29 21.37,73.43 23.13,73.43 C24.49,73.43 26.01,75 26.22,77.27 Z" fill="#2D2D2B"/>
  <path d="M32.728,75.038 C34.169,75.174 35.171,77.041 34.966,79.207 C34.761,81.373 33.427,83.019 31.987,82.883 C30.546,82.747 29.544,80.88 29.749,78.714 C29.954,76.548 31.288,74.902 32.728,75.038 Z" fill="#2D2D2B"/>
  <path d="M53.121,61.433 C55.375,61.656 56.988,63.989 56.726,66.644 C56.463,69.298 54.423,71.269 52.17,71.046 C49.917,70.823 48.303,68.49 48.566,65.836 C48.828,63.181 50.868,61.21 53.121,61.433 Z" fill="#2D2D2B"/>
  <path d="M23.312,55.44 C25.636,55.67 27.31,57.986 27.05,60.613 C26.79,63.24 24.695,65.183 22.37,64.953 C20.045,64.723 18.372,62.407 18.632,59.78 C18.892,57.153 20.987,55.21 23.312,55.44 Z" fill="#2D2D2B"/>
</svg>

<svg viewBox="0 0 128 128" xmlns="http://www.w3.org/2000/svg">
  <path d="M70.52,93.98c0,1.5,0.44,5.26,0.44,6.76c0,1.5,0.94,4.5,5.02,4.93c6.31,0.65,7.86-2.64,8.59-6.48 c0.99-5.21,0.41-11.4,0.41-11.4L70.52,93.98z" fill="#FFA8A7"/>
  <path d="M119.79,19.65c1.78-0.38,4.13,0.19,4.22-1.6c0.11-2.16-2.63-3.57-5.91-2.63 c-3.27,0.93-4.32,3.75-4.32,3.75s-3.71-1.73-6.95,0.84c-3.66,2.91-3.94,9.01-3.94,9.01l5.16,4.97c0,0,0.13-5.76,0.94-7.88 c1.03-2.72,2.82-2.25,2.82-2.25s-1.97,5.44,0.75,8.73c3.26,3.94,10.51,2.25,9.48-4.41c-0.61-3.96-4.41-6.38-4.41-6.38 S118.45,19.93,119.79,19.65z M117.07,30.82c-2.99,0.34-2.06-4.88-1.5-6.38C118.01,25.47,119.51,30.53,117.07,30.82z" fill="#FFD2B1"/>
  <path d="M45.97,24.86c18.19-7.4,54.05-9.08,66.17,10.28c12.25,19.57,3.8,32.1,2.39,35.62 c-2.02,5.05-3.8,11.54-4.22,14.92c-0.5,3.97-1.13,14.22-1.55,16.33c-0.42,2.11-4.08,5.21-7.88,4.93c-3.8-0.28-6.9-2.67-7.18-4.93 c-0.28-2.25,0.84-7.88-1.83-9.85c-2.67-1.97-10.7-0.7-15.49,1.83s-27.4,14.32-52.65,3.24C-1.61,86.1,4.3,62.02,10.5,54.98 s5.49-8.45,5.49-8.45s-6.19,1.55-3.8-3.38s8.59-13.09,9.71-13.8c1.13-0.7,4.79-1.83,6.76-0.56c1.97,1.27,1.97,3.1,1.97,3.1 S33.87,29.78,45.97,24.86z" fill="#FFD2B1"/>
  <path d="M20.77,93.84c0,0,0.28,9.85,0.42,12.25s0.47,6.29,0.84,8.17c0.42,2.11,2.12,3.32,5.49,3.52 c4.65,0.28,6.9-1.69,7.32-3.38c0.42-1.69,0.84-16.89,0.84-16.89L20.77,93.84z" fill="#FFD2B1"/>
  <path d="M47.1,98.2c0,0-0.04,4.93,0.14,9.85c0.14,3.8,0.14,8.17,0.56,9.29c0.7,1.87,4.08,2.96,7.04,3.1 c3.24,0.15,5.42-1.48,6.76-2.82c0.7-0.7,0.7-4.22,0.84-9.29c0.08-2.96,0.28-11.68,0.28-11.68L47.1,98.2z" fill="#FFD2B1"/>
  <path d="M62.82,43.58c-0.75-1.63-4.58,0-5.54,2.44c-1.22,3.1,0,6.1,1.78,9.48c1.22,2.31,6.76,9.48,13.14,7.98 c7.42-1.75,5.35-13.33,5.07-14.64c-0.28-1.31-1.17-3.06-2.72-2.82c-1.78,0.28-0.93,3.24-0.84,5.44c0.09,2.44,0.19,6.57-2.72,7.23 c-3.11,0.7-5.31-1.34-7.04-4.13c-1.69-2.72-3.66-4.79-3.1-7.32C61.2,45.68,63.38,44.8,62.82,43.58z" fill="#E6508F"/>
  <path d="M24.81,40.48c-1.42-0.55-3.1,1.6-4.69,2.91s-4.5,3-5.63,1.6c-1.17-1.47,2.52-5.32,4.69-9.01 c1.88-3.19,3.64-6.85,6.1-7.04c3.66-0.28,0.81-1.92-1.88-1.41c-1.97,0.38-4.69,2.16-6.19,5.16S8.57,43.3,10.92,46.77 c2.7,4,8.63,2.16,11.26,0C24.81,44.61,26.5,41.14,24.81,40.48z" fill="#E6508F"/>
  <path d="M29.5,69.2c-5.16-0.94-13.38,0.5-13.98,6.29c-0.47,4.5,2.44,9.95,11.92,12.01 c9.48,2.06,14.17-1.5,14.64-6.57C42.55,75.87,37.2,70.61,29.5,69.2z" fill="#FF7D86"/>
  <path d="M26.22,77.27c0.2,2.27-0.42,3.91-1.78,4.04c-1.36,0.12-3.27-1.48-3.47-3.75 c-0.2-2.27,0.4-4.13,2.16-4.13C24.49,73.43,26.01,75,26.22,77.27z" fill="#2D2D2B"/>
  <ellipse cx="32.35" cy="78.96" fill="#2D2D2B" rx="3.94" ry="2.62" transform="matrix(0.0941 -0.9956 0.9956 0.0941 -49.2991 103.738)"/>
  <ellipse cx="52.65" cy="66.23" fill="#2D2D2B" rx="4.83" ry="4.1" transform="matrix(0.0985 -0.9951 0.9951 0.0985 -18.4459 112.1081)"/>
  <ellipse cx="22.84" cy="60.19" fill="#2D2D2B" rx="4.78" ry="4.23" transform="matrix(0.0985 -0.9951 0.9951 0.0985 -39.304 76.996)"/>
</svg>
